X:311
T:Geese in the Bog, The
T:Lark's March, The
T:Fermanagh Gold Ring, The
R:jig
Z:id:hn-jig-311
M:6/8
K:D
AFE F2E|DED D2B|AFE F2E|DFA B2d|
AFE F2E|DED D2f|gfe fdB|AFA ~B3:|
|:ABd fdB|~A3 AFB|ABd fdB|AFA ~B3|
ABd fdB|~A3 A2f|gfe fdB|AFA ~B3:|
|:ABd fdd|ede fdB|ABd fdB|AFA ~B3|
ABd fdd|ede fdB|gfe fdB|AFA ~B3:|
|:DFA dAF|DFA BGE|DFA dAF|DFA ~B3|
DFA dAF|ABA A2f|gfe fdB|AFA B2A:|
|:~d3 def|~A3 AFA|~d3 def|AFA B2A|
~d3 def|~d3 def|gfe fdB|1 AFA B2A:|2 AFA B2d||

